src/components/ProductFeature/images/feature-dashboards.svg

<svg xmlns="http://www.w3.org/2000/svg" width="234" height="141" fill="none" viewBox="0 0 234 141"><path fill="#B96CD8" fill-rule="evenodd" d="M6.00195e-05 5.80885C6.05804e-05 2.60065 2.60083 -0.000121616 5.80904 -0.000121055L59.2297 -0.000111714C62.4379 -0.000111153 65.0386 2.60066 65.0386 5.80887L65.0386 26.9664C65.0386 29.6224 67.1922 31.7752 69.8482 31.7742C72.5029 31.7733 74.6544 29.621 74.6544 26.9664L74.6544 6.06536C74.6544 2.85715 77.2551 0.256378 80.4633 0.256379L227.867 0.256404C231.075 0.256405 233.676 2.85717 233.676 6.06538L233.676 58.6986C233.676 61.9068 231.075 64.5076 227.867 64.5076L113.171 64.5075C110.066 64.5075 107.549 67.0246 107.549 70.1295C107.549 73.2344 110.066 75.7514 113.171 75.7514L133.125 75.7514C136.333 75.7514 138.934 78.3522 138.934 81.5604L138.934 102.589C138.934 105.686 141.444 108.196 144.542 108.196C147.639 108.196 150.149 105.686 150.149 102.589L150.149 81.5604C150.149 78.3522 152.75 75.7514 155.958 75.7514L227.867 75.7514C231.075 75.7514 233.676 78.3522 233.676 81.5604L233.676 134.194C233.676 137.402 231.075 140.003 227.867 140.003L155.958 140.003C152.75 140.003 150.149 137.402 150.149 134.194L150.149 114.772C150.149 111.675 147.639 109.165 144.542 109.165C141.444 109.165 138.934 111.675 138.934 114.772L138.934 134.981C138.934 138.189 136.333 140.79 133.125 140.79L79.7041 140.79C76.4959 140.79 73.8951 138.189 73.8951 134.981L73.8952 81.5604C73.8952 78.3522 76.4959 75.7514 79.7041 75.7514L100.959 75.7514C104.064 75.7514 106.581 73.2344 106.581 70.1295C106.581 67.0246 104.064 64.5075 100.959 64.5075L80.4633 64.5075C77.2551 64.5075 74.6543 61.9068 74.6543 58.6986L74.6544 37.5503C74.6544 34.8943 72.5007 32.7415 69.8448 32.7424C67.1901 32.7434 65.0386 34.8956 65.0386 37.5503L65.0386 59.2295C65.0386 62.4377 62.4378 65.0385 59.2296 65.0385L5.80903 65.0384C2.60082 65.0384 5.01182e-05 62.4377 5.06791e-05 59.2295L6.00195e-05 5.80885Z" clip-rule="evenodd"/><path fill="#fff" fill-opacity=".4" fill-rule="evenodd" d="M13.6096 12.031C12.7225 12.031 12.0034 12.7502 12.0034 13.6373V52.188C12.0034 53.0751 12.7225 53.7943 13.6096 53.7943C13.9022 53.7943 14.1765 53.7161 14.4127 53.5794C14.649 53.7161 14.9233 53.7944 15.2159 53.7944H53.7666C54.6538 53.7944 55.3729 53.0752 55.3729 52.1881C55.3729 51.301 54.6538 50.5818 53.7666 50.5818H15.2159L15.2159 13.6373C15.2159 12.7502 14.4968 12.031 13.6096 12.031Z" clip-rule="evenodd"/><path fill="#fff" fill-opacity=".4" fill-rule="evenodd" d="M87.5047 12.2876C86.6176 12.2876 85.8984 13.0068 85.8984 13.8939V52.4446C85.8984 53.3317 86.6176 54.0509 87.5047 54.0509C87.7973 54.0509 88.0717 53.9726 88.308 53.8359C88.5442 53.9726 88.8185 54.0508 89.111 54.0508L217.613 54.0508C218.501 54.0508 219.22 53.3316 219.22 52.4445C219.22 51.5574 218.501 50.8382 217.613 50.8382L89.111 50.8382C89.111 50.8382 89.111 50.8382 89.111 50.8382V13.8939C89.111 13.0068 88.3918 12.2876 87.5047 12.2876Z" clip-rule="evenodd"/><rect width="8.031" height="11.244" x="18.428" y="36.125" fill="#fff" fill-opacity=".4" rx="4.016"/><rect width="8.031" height="17.669" x="29.672" y="29.7" fill="#fff" fill-opacity=".6" rx="4.016"/><rect width="8.031" height="27.307" x="40.916" y="20.063" fill="#fff" fill-opacity=".8" rx="4.016"/><path stroke="#fff" stroke-linecap="round" stroke-linejoin="round" stroke-width="1.196" d="M93.1266 46.8226L105.977 29.1535H122.04L131.677 39.5943L147.74 15.5001H163L170.228 29.1535H190.307L201.55 39.5943L216.81 20.319" opacity=".8"/><path fill="url(#paint0_angular)" fill-rule="evenodd" d="M105.977 127.94C117.066 127.94 126.055 118.95 126.055 107.861C126.055 96.7722 117.066 87.7827 105.977 87.7827C94.8878 87.7827 85.8983 96.7722 85.8983 107.861C85.8983 118.95 94.8878 127.94 105.977 127.94ZM105.977 118.302C111.743 118.302 116.418 113.627 116.418 107.861C116.418 102.095 111.743 97.4203 105.977 97.4203C100.211 97.4203 95.536 102.095 95.536 107.861C95.536 113.627 100.211 118.302 105.977 118.302Z" clip-rule="evenodd" opacity=".8"/><rect width="9.564" height="4.782" x="161.394" y="90.995" fill="#fff" fill-opacity=".2" rx="2.391"/><rect width="9.564" height="4.782" x="173.349" y="90.995" fill="#fff" fill-opacity=".4" rx="2.391"/><rect width="9.564" height="4.782" x="185.305" y="90.995" fill="#fff" fill-opacity=".7" rx="2.391"/><rect width="9.564" height="4.782" x="197.26" y="90.995" fill="#fff" rx="2.391"/><rect width="9.564" height="4.782" x="161.394" y="100.633" fill="#fff" fill-opacity=".2" rx="2.391"/><rect width="9.564" height="4.782" x="173.349" y="100.633" fill="#fff" fill-opacity=".4" rx="2.391"/><rect width="9.564" height="4.782" x="185.305" y="100.633" fill="#fff" fill-opacity=".7" rx="2.391"/><rect width="9.564" height="4.782" x="161.394" y="110.271" fill="#fff" fill-opacity=".2" rx="2.391"/><rect width="9.564" height="4.782" x="173.349" y="110.271" fill="#fff" fill-opacity=".4" rx="2.391"/><rect width="9.564" height="4.782" x="161.394" y="119.908" fill="#fff" fill-opacity=".2" rx="2.391"/><defs><radialGradient id="paint0_angular" cx="0" cy="0" r="1" gradientTransform="translate(105.977 107.861) rotate(90) scale(20.0785)" gradientUnits="userSpaceOnUse"><stop stop-color="#fff"/><stop offset=".19" stop-color="#fff"/><stop offset=".192" stop-color="#fff" stop-opacity=".51"/><stop offset=".363" stop-color="#fff" stop-opacity=".53"/><stop offset=".364" stop-color="#fff"/><stop offset=".496" stop-color="#fff"/><stop offset=".497" stop-color="#fff" stop-opacity=".66"/><stop offset=".998" stop-color="#fff" stop-opacity=".67"/><stop offset="1" stop-color="#fff" stop-opacity="0"/></radialGradient></defs></svg>

<svg fill="none" xmlns="http://www.w3.org/2000/svg" viewBox="0 0 234 141"><path fill-rule="evenodd" clip-rule="evenodd" d="M0 5.809C0 2.601 2.6 0 5.809 0h53.42c3.209 0 5.81 2.6 5.81 5.809v21.158a4.808 4.808 0 009.616 0V6.064c0-3.208 2.6-5.809 5.808-5.808h147.404a5.81 5.81 0 015.809 5.808V58.7a5.81 5.81 0 01-5.809 5.809H113.171a5.622 5.622 0 100 11.244h19.954a5.81 5.81 0 015.809 5.809v21.028a5.607 5.607 0 005.607 5.607 5.607 5.607 0 005.608-5.607V81.561a5.81 5.81 0 015.809-5.81h71.909a5.81 5.81 0 015.809 5.81v52.633a5.81 5.81 0 01-5.809 5.809h-71.909a5.81 5.81 0 01-5.809-5.809v-19.422a5.607 5.607 0 00-5.608-5.607 5.607 5.607 0 00-5.607 5.607v20.209a5.81 5.81 0 01-5.809 5.809h-53.42a5.81 5.81 0 01-5.81-5.809v-53.42c0-3.209 2.6-5.81 5.81-5.81h21.254a5.622 5.622 0 100-11.244H80.463a5.809 5.809 0 01-5.809-5.808V37.55a4.808 4.808 0 00-9.616 0v21.68c0 3.208-2.6 5.809-5.808 5.809H5.809A5.809 5.809 0 010 59.229V5.81z" fill="#DC9300"/><path fill-rule="evenodd" clip-rule="evenodd" d="M13.61 12.031c-.887 0-1.607.72-1.607 1.606v38.551a1.606 1.606 0 002.41 1.391c.236.137.51.215.803.215h38.55a1.606 1.606 0 000-3.212h-38.55V13.637c0-.887-.72-1.606-1.606-1.606zM87.505 12.288c-.887 0-1.607.719-1.607 1.606v38.55a1.606 1.606 0 002.41 1.392c.236.137.51.215.803.215h128.502a1.606 1.606 0 100-3.213H89.111V13.894c0-.887-.72-1.606-1.606-1.606z" fill="#fff" fill-opacity=".4"/><rect x="18.428" y="36.125" width="8.031" height="11.244" rx="4.016" fill="#fff" fill-opacity=".4"/><rect x="29.673" y="29.7" width="8.031" height="17.669" rx="4.016" fill="#fff" fill-opacity=".6"/><rect x="40.916" y="20.063" width="8.031" height="27.307" rx="4.016" fill="#fff" fill-opacity=".8"/><path opacity=".8" d="M93.127 46.822l12.85-17.669h16.063l9.637 10.441L147.74 15.5H163l7.228 13.653h20.079l11.244 10.441L216.81 20.32" stroke="#fff" stroke-width="1.196" stroke-linecap="round" stroke-linejoin="round"/><path opacity=".8" fill-rule="evenodd" clip-rule="evenodd" d="M105.977 127.94c11.089 0 20.078-8.99 20.078-20.079s-8.989-20.078-20.078-20.078c-11.09 0-20.079 8.99-20.079 20.078 0 11.089 8.99 20.079 20.079 20.079zm0-9.638c5.766 0 10.441-4.675 10.441-10.441 0-5.766-4.675-10.44-10.441-10.44-5.767 0-10.441 4.674-10.441 10.44 0 5.766 4.674 10.441 10.441 10.441z" fill="url(#paint0_angular)"/><rect x="161.394" y="90.995" width="9.564" height="4.782" rx="2.391" fill="#fff" fill-opacity=".2"/><rect x="173.349" y="90.995" width="9.564" height="4.782" rx="2.391" fill="#fff" fill-opacity=".4"/><rect x="185.305" y="90.995" width="9.564" height="4.782" rx="2.391" fill="#fff" fill-opacity=".7"/><rect x="197.26" y="90.995" width="9.564" height="4.782" rx="2.391" fill="#fff"/><rect x="161.394" y="100.633" width="9.564" height="4.782" rx="2.391" fill="#fff" fill-opacity=".2"/><rect x="173.349" y="100.633" width="9.564" height="4.782" rx="2.391" fill="#fff" fill-opacity=".4"/><rect x="185.305" y="100.633" width="9.564" height="4.782" rx="2.391" fill="#fff" fill-opacity=".7"/><rect x="161.394" y="110.271" width="9.564" height="4.782" rx="2.391" fill="#fff" fill-opacity=".2"/><rect x="173.349" y="110.271" width="9.564" height="4.782" rx="2.391" fill="#fff" fill-opacity=".4"/><rect x="161.394" y="119.908" width="9.564" height="4.782" rx="2.391" fill="#fff" fill-opacity=".2"/><defs><radialGradient id="paint0_angular" cx="0" cy="0" r="1" gradientUnits="userSpaceOnUse" gradientTransform="rotate(90 -.942 106.919) scale(20.0785)"><stop stop-color="#fff"/><stop offset=".19" stop-color="#fff"/><stop offset=".192" stop-color="#fff" stop-opacity=".51"/><stop offset=".363" stop-color="#fff" stop-opacity=".53"/><stop offset=".364" stop-color="#fff"/><stop offset=".496" stop-color="#fff"/><stop offset=".497" stop-color="#fff" stop-opacity=".66"/><stop offset=".998" stop-color="#fff" stop-opacity=".67"/><stop offset="1" stop-color="#fff" stop-opacity="0"/></radialGradient></defs></svg>
